app/dist/common/images/marathon-petroleum.svg

<svg height="18" width="18" xmlns="http://www.w3.org/2000/svg"><path d="m0 0h18v18h-18z" fill="#1e59ae"/><path d="m11.555 5c.275.023.544.269.623.549l1.606 3.814c.099.216.267.477.201.768l-.09.393-.484 1.917c-.064.283-.335.51-.593.557l-7.52.002a.706.706 0 0 1 -.6-.32c-.144-.256-.693-2.538-.693-2.538-.026-.223.057-.418.136-.604l1.357-3.314.333-.807a.789.789 0 0 1 .66-.417z" fill="#fff"/><path d="m9 8.857 1-2.857h1.5l1.504 5h-2.004l-.437-2.857-.938 2.857h-1.25l-.937-2.857-.438 2.857h-2l1.5-5h1.5z" fill="#ed114c"/></svg>

<!-- by TradingView --><svg width="18" height="18" xmlns="http://www.w3.org/2000/svg"><path fill="#1E59AE" d="M0 0h18v18H0z"/><path d="M11.555 5c.275.023.544.269.623.549l1.606 3.814c.099.216.267.477.201.768l-.09.393-.484 1.917c-.064.283-.335.51-.593.557L5.298 13a.706.706 0 01-.6-.32c-.144-.256-.693-2.538-.693-2.538-.026-.223.057-.418.136-.604l1.357-3.314.333-.807A.789.789 0 016.491 5h5.064z" fill="#fff"/><path d="M9 8.857L10 6h1.5l1.504 5H11l-.437-2.857L9.625 11h-1.25l-.937-2.857L7 11H5l1.5-5H8l1 2.857z" fill="#ED114C"/></svg>
